;FLAVOR:Marlin
;TIME:2708
;Filament used: 1.97184m
;Layer height: 0.2
;MINX:61.165
;MINY:40.053
;MINZ:0.3
;MAXX:113.835
;MAXY:131.583
;MAXZ:8.1
;Generated with Creality Slicer 4.8.2-196
M140 S50
M105
M190 S50
M104 S195
M105
M109 S195
M82 ;absolute extrusion mode
G28 ;Home

G92 E0 ;Reset Extruder
G1 Z2.0 F3000 ;Move Z Axis up
G1 X10.1 Y20 Z0.28 F5000.0 ;Move to start position
G1 X10.1 Y170.0 Z0.28 F1500.0 E12 ;Draw the first line
G1 X10.4 Y170.0 Z0.28 F5000.0 ;Move to side a little
G1 X10.4 Y20 Z0.28 F1500.0 E25 ;Draw the second line
G92 E0 ;Reset Extruder
G1 Z2.0 F3000 ;Move Z Axis up

G92 E0
G92 E0
G1 F1500 E-0.8
;LAYER_COUNT:40
;LAYER:0
M107
G0 F6000 X63.476 Y45.659 Z0.3
;TYPE:SKIRT
G1 F1500 E0
G1 F900 X63.857 Y45.137 E0.0503
G1 X64.098 Y44.833 E0.08049
G1 X64.511 Y44.352 E0.12983
G1 X64.776 Y44.067 E0.16012
G1 X65.211 Y43.633 E0.20794
G1 X65.498 Y43.368 E0.23835
G1 X65.974 Y42.962 E0.28704
G1 X66.277 Y42.723 E0.31707
G1 X66.817 Y42.332 E0.36896
G1 X67.143 Y42.116 E0.3994
G1 X67.661 Y41.8 E0.44662
G1 X67.999 Y41.611 E0.47676
G1 X68.579 Y41.317 E0.52737
G1 X68.933 Y41.155 E0.55767
G1 X69.504 Y40.92 E0.60573
G1 X69.871 Y40.785 E0.63616
G1 X70.523 Y40.576 E0.68945
G1 X70.895 Y40.474 E0.71947
G1 X71.481 Y40.336 E0.76632
G1 X71.865 Y40.261 E0.79678
G1 X72.474 Y40.166 E0.84475
G1 X72.859 Y40.121 E0.87491
G1 X73.441 Y40.075 E0.92035
G1 X73.759 Y40.061 E0.94513
G1 X74.113 Y40.053 E0.97268
G1 X100.834 Y40.053 E3.05235
G1 X101.169 Y40.06 E3.07842
G1 X101.578 Y40.077 E3.11028
G1 X102.252 Y40.133 E3.16292
G1 X102.656 Y40.184 E3.19461
G1 X103.296 Y40.291 E3.24511
G1 X103.698 Y40.375 E3.27708
G1 X104.347 Y40.539 E3.32918
G1 X104.737 Y40.655 E3.36084
G1 X105.375 Y40.875 E3.41337
G1 X105.756 Y41.024 E3.44521
G1 X106.353 Y41.286 E3.49595
G1 X106.72 Y41.465 E3.52773
G1 X107.313 Y41.785 E3.58017
G1 X107.662 Y41.993 E3.61179
G1 X108.219 Y42.357 E3.66358
G1 X108.551 Y42.594 E3.69533
G1 X109.065 Y42.993 E3.74597
G1 X109.378 Y43.257 E3.77784
G1 X109.89 Y43.729 E3.83203
G1 X110.178 Y44.018 E3.86379
G1 X110.622 Y44.501 E3.91485
G1 X110.886 Y44.813 E3.94666
G1 X111.277 Y45.314 E3.99612
G1 X111.515 Y45.645 E4.02785
G1 X111.896 Y46.226 E4.08192
G1 X112.105 Y46.577 E4.11372
G1 X112.432 Y47.184 E4.16738
G1 X112.61 Y47.551 E4.19912
G1 X112.864 Y48.132 E4.24847
G1 X113.013 Y48.513 E4.28031
G1 X113.234 Y49.157 E4.3333
G1 X113.35 Y49.548 E4.36505
G1 X113.506 Y50.161 E4.41428
G1 X113.591 Y50.56 E4.44603
G1 X113.707 Y51.251 E4.50056
G1 X113.757 Y51.656 E4.53232
G1 X113.811 Y52.309 E4.58331
G1 X113.828 Y52.718 E4.61517
G1 X113.835 Y53.053 E4.64125
G1 X113.834 Y118.625 E9.74464
G1 X113.827 Y118.95 E9.76994
G1 X113.813 Y119.297 E9.79697
G1 X113.763 Y119.928 E9.84623
G1 X113.717 Y120.313 E9.87641
G1 X113.62 Y120.926 E9.92471
G1 X113.544 Y121.309 E9.9551
G1 X113.389 Y121.949 E10.00635
G1 X113.283 Y122.321 E10.03645
G1 X113.09 Y122.913 E10.08491
G1 X112.954 Y123.28 E10.11538
G1 X112.722 Y123.839 E10.16248
G1 X112.561 Y124.19 E10.19253
G1 X112.257 Y124.786 E10.24461
G1 X112.066 Y125.125 E10.27489
G1 X111.741 Y125.654 E10.32321
G1 X111.524 Y125.978 E10.35356
G1 X111.143 Y126.5 E10.40386
G1 X110.902 Y126.804 E10.43405
G1 X110.499 Y127.274 E10.48224
G1 X110.235 Y127.559 E10.51247
G1 X109.768 Y128.023 E10.56371
G1 X109.48 Y128.287 E10.59411
G1 X109.026 Y128.674 E10.64054
G1 X108.723 Y128.913 E10.67058
G1 X108.197 Y129.294 E10.72113
G1 X107.871 Y129.511 E10.75161
G1 X107.339 Y129.837 E10.80017
G1 X107.001 Y130.026 E10.83031
G1 X106.429 Y130.316 E10.88022
G1 X106.076 Y130.478 E10.91045
G1 X105.472 Y130.727 E10.96129
G1 X105.104 Y130.861 E10.99178
G1 X104.477 Y131.06 E11.04297
G1 X104.105 Y131.162 E11.07299
G1 X103.539 Y131.296 E11.11826
G1 X103.155 Y131.372 E11.14873
G1 X102.505 Y131.473 E11.19992
G1 X102.12 Y131.517 E11.23008
G1 X101.561 Y131.561 E11.27372
G1 X101.244 Y131.575 E11.29842
G1 X100.888 Y131.583 E11.32613
G1 X74.123 Y131.582 E13.40922
G1 X73.798 Y131.575 E13.43452
G1 X73.451 Y131.561 E13.46155
G1 X72.82 Y131.511 E13.51081
G1 X72.435 Y131.465 E13.54099
G1 X71.822 Y131.368 E13.58929
G1 X71.439 Y131.292 E13.61968
G1 X70.799 Y131.137 E13.67093
G1 X70.427 Y131.031 E13.70104
G1 X69.853 Y130.844 E13.74802
G1 X69.486 Y130.709 E13.77846
G1 X68.89 Y130.463 E13.82864
G1 X68.537 Y130.3 E13.8589
G1 X67.958 Y130.003 E13.90954
G1 X67.621 Y129.813 E13.93965
G1 X67.103 Y129.495 E13.98696
G1 X66.778 Y129.278 E14.01737
G1 X66.237 Y128.883 E14.06951
G1 X65.934 Y128.642 E14.09964
G1 X65.473 Y128.246 E14.14694
G1 X65.187 Y127.981 E14.17728
G1 X64.732 Y127.525 E14.22742
G1 X64.469 Y127.239 E14.25766
G1 X64.068 Y126.767 E14.30586
G1 X63.828 Y126.462 E14.33607
G1 X63.44 Y125.925 E14.38763
G1 X63.225 Y125.6 E14.41796
G1 X62.911 Y125.085 E14.4649
G1 X62.721 Y124.745 E14.49522
G1 X62.431 Y124.173 E14.54513
G1 X62.27 Y123.822 E14.57518
G1 X62.032 Y123.245 E14.62376
G1 X61.897 Y122.878 E14.65419
G1 X61.686 Y122.221 E14.7079
G1 X61.584 Y121.848 E14.738
G1 X61.453 Y121.291 E14.78253
G1 X61.377 Y120.908 E14.81292
G1 X61.275 Y120.252 E14.86459
G1 X61.231 Y119.866 E14.89482
G1 X61.187 Y119.309 E14.93831
G1 X61.173 Y118.992 E14.96301
G1 X61.165 Y118.636 E14.99072
G1 X61.166 Y53.011 E20.09823
G1 X61.173 Y52.685 E20.12361
G1 X61.187 Y52.339 E20.15056
G1 X61.237 Y51.709 E20.19974
G1 X61.283 Y51.324 E20.22992
G1 X61.379 Y50.715 E20.2779
G1 X61.455 Y50.331 E20.30837
G1 X61.611 Y49.687 E20.35994
G1 X61.717 Y49.315 E20.39005
G1 X61.913 Y48.717 E20.43902
G1 X62.049 Y48.351 E20.46941
G1 X62.278 Y47.798 E20.516
G1 X62.439 Y47.447 E20.54605
G1 X62.743 Y46.851 E20.59812
G1 X62.934 Y46.512 E20.62841
G1 X63.259 Y45.983 E20.67673
G1 X63.476 Y45.659 E20.70708
G0 F6000 X63.908 Y45.948
G1 F900 X64.264 Y45.46 E20.75409
G1 X64.505 Y45.156 E20.78428
G1 X64.892 Y44.706 E20.83047
G1 X65.157 Y44.421 E20.86076
G1 X65.564 Y44.015 E20.9055
G1 X65.851 Y43.75 E20.93591
G1 X66.296 Y43.37 E20.98145
G1 X66.599 Y43.131 E21.01149
G1 X67.104 Y42.766 E21.05998
G1 X67.43 Y42.55 E21.09042
G1 X67.915 Y42.254 E21.13464
G1 X68.253 Y42.065 E21.16478
G1 X68.795 Y41.79 E21.21208
G1 X69.149 Y41.628 E21.24238
G1 X69.684 Y41.408 E21.2874
G1 X70.051 Y41.273 E21.31783
G1 X70.66 Y41.077 E21.36763
G1 X71.032 Y40.975 E21.39765
G1 X71.581 Y40.847 E21.44152
G1 X71.965 Y40.772 E21.47197
G1 X72.535 Y40.683 E21.51687
G1 X72.92 Y40.638 E21.54704
G1 X73.463 Y40.594 E21.58944
G1 X73.781 Y40.58 E21.61421
G1 X74.113 Y40.573 E21.64006
G1 X100.834 Y40.573 E23.71972
G1 X101.147 Y40.58 E23.74409
G1 X101.556 Y40.597 E23.77595
G1 X102.187 Y40.649 E23.82522
G1 X102.591 Y40.7 E23.85691
G1 X103.189 Y40.8 E23.9041
G1 X103.591 Y40.884 E23.93606
G1 X104.199 Y41.038 E23.98488
G1 X104.589 Y41.154 E24.01655
G1 X105.185 Y41.359 E24.0656
G1 X105.566 Y41.508 E24.09744
G1 X106.125 Y41.753 E24.14494
G1 X106.492 Y41.932 E24.17672
G1 X107.047 Y42.232 E24.22582
G1 X107.396 Y42.44 E24.25744
G1 X107.917 Y42.78 E24.30586
G1 X108.249 Y43.017 E24.33761
G1 X108.729 Y43.39 E24.38492
G1 X109.042 Y43.654 E24.41679
G1 X109.522 Y44.096 E24.46757
G1 X109.81 Y44.385 E24.49933
G1 X110.225 Y44.837 E24.54708
G1 X110.489 Y45.149 E24.57889
G1 X110.855 Y45.617 E24.62513
G1 X111.093 Y45.948 E24.65686
G1 X111.449 Y46.492 E24.70746
G1 X111.658 Y46.843 E24.73925
G1 X111.964 Y47.411 E24.78947
G1 X112.142 Y47.778 E24.82121
G1 X112.38 Y48.322 E24.86743
G1 X112.529 Y48.703 E24.89927
G1 X112.736 Y49.304 E24.94874
G1 X112.852 Y49.695 E24.98048
G1 X112.998 Y50.269 E25.02658
G1 X113.083 Y50.668 E25.05833
G1 X113.191 Y51.315 E25.10938
G1 X113.241 Y51.72 E25.14114
G1 X113.291 Y52.331 E25.18885
G1 X113.308 Y52.74 E25.22071
G1 X113.315 Y53.053 E25.24508
G1 X113.314 Y118.625 E30.34846
G1 X113.308 Y118.929 E30.37213
G1 X113.294 Y119.276 E30.39915
G1 X113.247 Y119.867 E30.4453
G1 X113.201 Y120.252 E30.47547
G1 X113.11 Y120.825 E30.52063
G1 X113.034 Y121.208 E30.55102
G1 X112.889 Y121.806 E30.59891
G1 X112.783 Y122.178 E30.62901
G1 X112.602 Y122.732 E30.67437
G1 X112.466 Y123.099 E30.70483
G1 X112.249 Y123.623 E30.74898
G1 X112.088 Y123.974 E30.77903
G1 X111.804 Y124.531 E30.82769
G1 X111.613 Y124.87 E30.85797
G1 X111.309 Y125.365 E30.90318
G1 X111.092 Y125.689 E30.93353
G1 X110.736 Y126.177 E30.98055
G1 X110.495 Y126.481 E31.01074
G1 X110.117 Y126.921 E31.05589
G1 X109.853 Y127.206 E31.08612
G1 X109.417 Y127.64 E31.134
G1 X109.129 Y127.904 E31.16441
G1 X108.704 Y128.266 E31.20786
G1 X108.401 Y128.505 E31.23789
G1 X107.909 Y128.862 E31.2852
G1 X107.583 Y129.079 E31.31568
G1 X107.085 Y129.383 E31.36109
G1 X106.747 Y129.572 E31.39123
G1 X106.212 Y129.844 E31.43794
G1 X105.859 Y130.006 E31.46817
G1 X105.294 Y130.238 E31.51571
G1 X104.926 Y130.372 E31.54619
G1 X104.34 Y130.559 E31.59406
G1 X103.968 Y130.661 E31.62408
G1 X103.438 Y130.786 E31.66646
G1 X103.054 Y130.862 E31.69693
G1 X102.446 Y130.956 E31.74481
G1 X102.061 Y131 E31.77497
G1 X101.538 Y131.042 E31.8158
G1 X101.221 Y131.056 E31.8405
G1 X100.888 Y131.063 E31.86642
G1 X74.123 Y131.062 E33.94951
G1 X73.819 Y131.056 E33.97317
G1 X73.472 Y131.042 E34.0002
G1 X72.881 Y130.995 E34.04634
G1 X72.496 Y130.949 E34.07652
G1 X71.923 Y130.858 E34.12168
G1 X71.54 Y130.782 E34.15206
G1 X70.942 Y130.637 E34.19996
G1 X70.57 Y130.531 E34.23006
G1 X70.033 Y130.356 E34.27402
G1 X69.666 Y130.221 E34.30445
G1 X69.108 Y129.99 E34.35145
G1 X68.755 Y129.827 E34.38172
G1 X68.213 Y129.55 E34.42909
G1 X67.876 Y129.36 E34.4592
G1 X67.392 Y129.063 E34.50339
G1 X67.067 Y128.846 E34.53381
G1 X66.56 Y128.476 E34.58266
G1 X66.257 Y128.235 E34.61279
G1 X65.826 Y127.865 E34.657
G1 X65.54 Y127.6 E34.68734
G1 X65.115 Y127.173 E34.73423
G1 X64.852 Y126.887 E34.76447
G1 X64.477 Y126.446 E34.80953
G1 X64.237 Y126.141 E34.83973
G1 X63.873 Y125.638 E34.88805
G1 X63.658 Y125.313 E34.91838
G1 X63.365 Y124.831 E34.96228
G1 X63.175 Y124.491 E34.9926
G1 X62.904 Y123.957 E35.0392
G1 X62.743 Y123.606 E35.06926
G1 X62.52 Y123.065 E35.1148
G1 X62.385 Y122.698 E35.14523
G1 X62.188 Y122.084 E35.19542
G1 X62.086 Y121.711 E35.22552
G1 X61.963 Y121.19 E35.26718
G1 X61.887 Y120.807 E35.29757
G1 X61.792 Y120.193 E35.34592
G1 X61.748 Y119.807 E35.37616
G1 X61.706 Y119.286 E35.41684
G1 X61.692 Y118.969 E35.44154
G1 X61.685 Y118.636 E35.46746
G1 X61.686 Y53.011 E40.57497
G1 X61.692 Y52.706 E40.59871
G1 X61.706 Y52.36 E40.62566
G1 X61.753 Y51.77 E40.67173
G1 X61.799 Y51.385 E40.7019
G1 X61.889 Y50.816 E40.74674
G1 X61.965 Y50.432 E40.77721
G1 X62.111 Y49.83 E40.82542
G1 X62.217 Y49.458 E40.85552
G1 X62.4 Y48.898 E40.90137
G1 X62.536 Y48.532 E40.93176
G1 X62.751 Y48.014 E40.97541
G1 X62.912 Y47.663 E41.00547
G1 X63.196 Y47.106 E41.05413
G1 X63.387 Y46.767 E41.08441
G1 X63.691 Y46.272 E41.12962
G1 X63.908 Y45.948 E41.15997
G0 F6000 X64.34 Y46.238
G1 F900 X64.672 Y45.783 E41.20381
G1 X64.913 Y45.479 E41.234
G1 X65.273 Y45.06 E41.27699
G1 X65.538 Y44.775 E41.30728
G1 X65.917 Y44.397 E41.34894
G1 X66.204 Y44.132 E41.37934
G1 X66.618 Y43.778 E41.42174
G1 X66.921 Y43.539 E41.45177
G1 X67.392 Y43.199 E41.49698
G1 X67.718 Y42.983 E41.52742
G1 X68.169 Y42.708 E41.56853
G1 X68.507 Y42.519 E41.59867
G1 X69.012 Y42.263 E41.64274
G1 X69.366 Y42.101 E41.67304
G1 X69.863 Y41.896 E41.71488
G1 X70.23 Y41.761 E41.74531
G1 X70.798 Y41.579 E41.79173
G1 X71.17 Y41.477 E41.82175
G1 X71.68 Y41.357 E41.86253
G1 X72.064 Y41.282 E41.89298
G1 X72.595 Y41.199 E41.93481
G1 X72.98 Y41.154 E41.96498
G1 X73.486 Y41.114 E42.00448
G1 X73.804 Y41.1 E42.02926
G1 X74.113 Y41.093 E42.05331
G1 X100.834 Y41.093 E44.13297
G1 X101.126 Y41.099 E44.1557
G1 X101.535 Y41.116 E44.18756
G1 X102.122 Y41.165 E44.23341
G1 X102.526 Y41.216 E44.2651
G1 X103.083 Y41.309 E44.30905
G1 X103.485 Y41.393 E44.34101
G1 X104.05 Y41.536 E44.38637
G1 X104.44 Y41.652 E44.41804
G1 X104.996 Y41.843 E44.46379
G1 X105.377 Y41.992 E44.49563
G1 X105.897 Y42.22 E44.53982
G1 X106.264 Y42.399 E44.5716
G1 X106.781 Y42.679 E44.61736
G1 X107.13 Y42.887 E44.64898
G1 X107.615 Y43.203 E44.69404
G1 X107.947 Y43.44 E44.72578
G1 X108.394 Y43.788 E44.76987
G1 X108.707 Y44.052 E44.80174
G1 X109.153 Y44.463 E44.84894
G1 X109.441 Y44.752 E44.8807
G1 X109.828 Y45.172 E44.92515
G1 X110.092 Y45.484 E44.95696
G1 X110.433 Y45.921 E45.0001
G1 X110.671 Y46.252 E45.03183
G1 X111.003 Y46.758 E45.07893
G1 X111.212 Y47.109 E45.11072
G1 X111.496 Y47.638 E45.15745
G1 X111.674 Y48.005 E45.1892
G1 X111.896 Y48.511 E45.2322
G1 X112.045 Y48.892 E45.26404
G1 X112.237 Y49.452 E45.31012
G1 X112.353 Y49.843 E45.34186
G1 X112.489 Y50.377 E45.38474
G1 X112.574 Y50.776 E45.4165
G1 X112.675 Y51.379 E45.46408
G1 X112.725 Y51.784 E45.49584
G1 X112.772 Y52.352 E45.5402
G1 X112.789 Y52.761 E45.57206
G1 X112.795 Y53.053 E45.59479
G1 X112.794 Y118.625 E50.69817
G1 X112.788 Y118.908 E50.7202
G1 X112.774 Y119.255 E50.74723
G1 X112.73 Y119.805 E50.79017
G1 X112.684 Y120.19 E50.82035
G1 X112.6 Y120.723 E50.86235
G1 X112.524 Y121.106 E50.89274
G1 X112.389 Y121.664 E50.93742
G1 X112.283 Y122.036 E50.96752
G1 X112.115 Y122.551 E51.00968
G1 X111.979 Y122.918 E51.04014
G1 X111.777 Y123.406 E51.08125
G1 X111.616 Y123.757 E51.1113
G1 X111.351 Y124.276 E51.15666
G1 X111.16 Y124.615 E51.18694
G1 X110.877 Y125.075 E51.22897
G1 X110.66 Y125.399 E51.25932
G1 X110.328 Y125.854 E51.30316
G1 X110.087 Y126.158 E51.33335
G1 X109.736 Y126.568 E51.37536
G1 X109.472 Y126.853 E51.4056
G1 X109.066 Y127.257 E51.45017
G1 X108.778 Y127.521 E51.48058
G1 X108.382 Y127.858 E51.52105
G1 X108.079 Y128.097 E51.55108
G1 X107.621 Y128.429 E51.59511
G1 X107.295 Y128.646 E51.62559
G1 X106.831 Y128.929 E51.66789
G1 X106.493 Y129.118 E51.69803
G1 X105.995 Y129.371 E51.7415
G1 X105.642 Y129.533 E51.77173
G1 X105.116 Y129.749 E51.81599
G1 X104.748 Y129.883 E51.84647
G1 X104.202 Y130.057 E51.89107
G1 X103.83 Y130.159 E51.92109
G1 X103.337 Y130.275 E51.9605
G1 X102.953 Y130.351 E51.99097
G1 X102.387 Y130.44 E52.03556
G1 X102.002 Y130.484 E52.06572
G1 X101.515 Y130.522 E52.10374
G1 X101.198 Y130.536 E52.12844
G1 X100.888 Y130.543 E52.15257
G1 X74.123 Y130.542 E54.23565
G1 X73.84 Y130.536 E54.25768
G1 X73.493 Y130.522 E54.28471
G1 X72.943 Y130.478 E54.32766
G1 X72.558 Y130.432 E54.35783
G1 X72.025 Y130.348 E54.39983
G1 X71.642 Y130.272 E54.43022
G1 X71.084 Y130.137 E54.4749
G1 X70.712 Y130.031 E54.505
G1 X70.212 Y129.868 E54.54593
G1 X69.845 Y129.733 E54.57637
G1 X69.326 Y129.518 E54.62009
G1 X68.973 Y129.355 E54.65035
G1 X68.468 Y129.097 E54.69449
G1 X68.131 Y128.907 E54.7246
G1 X67.681 Y128.63 E54.76572
G1 X67.356 Y128.413 E54.79614
G1 X66.884 Y128.069 E54.84159
G1 X66.581 Y127.828 E54.87172
G1 X66.18 Y127.483 E54.9129
G1 X65.894 Y127.218 E54.94324
G1 X65.498 Y126.821 E54.98688
G1 X65.235 Y126.535 E55.01712
G1 X64.885 Y126.124 E55.05914
G1 X64.645 Y125.819 E55.08934
G1 X64.307 Y125.351 E55.13427
G1 X64.092 Y125.026 E55.1646
G1 X63.819 Y124.578 E55.20543
G1 X63.629 Y124.238 E55.23574
G1 X63.376 Y123.74 E55.27922
G1 X63.215 Y123.389 E55.30927
G1 X63.008 Y122.886 E55.35161
G1 X62.873 Y122.519 E55.38204
G1 X62.69 Y121.947 E55.42878
G1 X62.588 Y121.574 E55.45888
G1 X62.473 Y121.088 E55.49775
G1 X62.397 Y120.705 E55.52814
G1 X62.308 Y120.134 E55.57311
G1 X62.264 Y119.748 E55.60335
G1 X62.226 Y119.263 E55.64121
G1 X62.212 Y118.946 E55.66591
G1 X62.205 Y118.636 E55.69004
G1 X62.206 Y53.011 E60.79755
G1 X62.212 Y52.727 E60.81966
G1 X62.226 Y52.381 E60.84661
G1 X62.27 Y51.832 E60.88947
G1 X62.316 Y51.447 E60.91965
G1 X62.4 Y50.917 E60.96142
G1 X62.476 Y50.533 E60.99188
G1 X62.611 Y49.972 E61.03679
G1 X62.717 Y49.6 E61.06689
G1 X62.888 Y49.079 E61.10957
G1 X63.024 Y48.713 E61.13996
G1 X63.223 Y48.231 E61.18054
G1 X63.384 Y47.88 E61.2106
G1 X63.649 Y47.361 E61.25595
G1 X63.84 Y47.022 E61.28624
G1 X64.123 Y46.562 E61.32827
G1 X64.34 Y46.238 E61.35862
G0 F6000 X64.772 Y46.527
G1 F900 X65.079 Y46.106 E61.39917
G1 X65.32 Y45.802 E61.42937
G1 X65.654 Y45.414 E61.46921
G1 X65.919 Y45.129 E61.4995
G1 X66.269 Y44.779 E61.53802
G1 X66.556 Y44.514 E61.56842
G1 X66.94 Y44.187 E61.60768
G1 X67.243 Y43.948 E61.63771
G1 X67.679 Y43.632 E61.67962
G1 X68.005 Y43.416 E61.71006
G1 X68.423 Y43.162 E61.74813
G1 X68.761 Y42.973 E61.77827
G1 X69.228 Y42.735 E61.81906
G1 X69.582 Y42.573 E61.84936
G1 X70.043 Y42.384 E61.88814
G1 X70.41 Y42.249 E61.91857
G1 X70.935 Y42.08 E61.9615
