;FLAVOR:Marlin
;TIME:9454
;Filament used: 3.87355m
;Layer height: 0.2
;MINX:63.245
;MINY:43.815
;MINZ:0.3
;MAXX:111.755
;MAXY:131.185
;MAXZ:12.5
;Generated with Creality Slicer 4.8.2-196
M140 S50
M105
M190 S50
M104 S195
M105
M109 S195
M82 ;absolute extrusion mode
G28 ;Home

G92 E0 ;Reset Extruder
G1 Z2.0 F3000 ;Move Z Axis up
G1 X10.1 Y20 Z0.28 F5000.0 ;Move to start position
G1 X10.1 Y170.0 Z0.28 F1500.0 E12 ;Draw the first line
G1 X10.4 Y170.0 Z0.28 F5000.0 ;Move to side a little
G1 X10.4 Y20 Z0.28 F1500.0 E25 ;Draw the second line
G92 E0 ;Reset Extruder
G1 Z2.0 F3000 ;Move Z Axis up

G92 E0
G92 E0
G1 F1500 E-0.8
;LAYER_COUNT:62
;LAYER:0
M107
G0 F6000 X65.434 Y48.181 Z0.3
;TYPE:SKIRT
G1 F1500 E0
G1 F900 X65.707 Y47.832 E0.03449
G1 X65.955 Y47.538 E0.06442
G1 X66.304 Y47.159 E0.10452
G1 X66.611 Y46.853 E0.13825
G1 X67.003 Y46.495 E0.17957
G1 X67.316 Y46.234 E0.21129
G1 X67.66 Y45.968 E0.24513
G1 X67.982 Y45.737 E0.27598
G1 X68.429 Y45.446 E0.31749
G1 X68.795 Y45.23 E0.35056
G1 X69.249 Y44.988 E0.3906
G1 X69.612 Y44.814 E0.42193
G1 X70.017 Y44.638 E0.4563
G1 X70.395 Y44.49 E0.4879
G1 X70.883 Y44.322 E0.52806
G1 X71.266 Y44.209 E0.55914
G1 X71.758 Y44.087 E0.59859
G1 X72.173 Y44.002 E0.63156
G1 X72.635 Y43.926 E0.668
G1 X73.021 Y43.878 E0.69828
G1 X73.511 Y43.837 E0.73655
G1 X73.92 Y43.82 E0.76841
G1 X74.168 Y43.815 E0.78771
G1 X100.883 Y43.815 E2.86691
G1 X101.161 Y43.821 E2.88855
G1 X101.505 Y43.837 E2.91535
G1 X101.933 Y43.873 E2.94878
G1 X102.303 Y43.917 E2.97778
G1 X102.729 Y43.983 E3.01133
G1 X103.113 Y44.057 E3.04176
G1 X103.601 Y44.173 E3.0808
G1 X103.967 Y44.276 E3.11039
G1 X104.411 Y44.42 E3.14672
G1 X104.778 Y44.555 E3.17716
G1 X105.187 Y44.722 E3.21154
G1 X105.548 Y44.886 E3.2424
G1 X106.015 Y45.124 E3.28319
G1 X106.348 Y45.312 E3.31296
G1 X106.725 Y45.543 E3.34737
G1 X107.064 Y45.769 E3.37908
G1 X107.456 Y46.054 E3.4168
G1 X107.752 Y46.288 E3.44616
G1 X108.11 Y46.595 E3.48287
G1 X108.386 Y46.851 E3.51217
G1 X108.704 Y47.169 E3.54717
G1 X108.984 Y47.471 E3.57922
G1 X109.289 Y47.827 E3.6157
G1 X109.52 Y48.119 E3.64468
G1 X109.817 Y48.529 E3.68408
G1 X110.036 Y48.86 E3.71497
G1 X110.259 Y49.224 E3.7482
G1 X110.454 Y49.57 E3.77911
G1 X110.681 Y50.016 E3.81806
G1 X110.834 Y50.35 E3.84665
G1 X111.008 Y50.772 E3.88218
G1 X111.151 Y51.16 E3.91436
G1 X111.306 Y51.644 E3.95391
G1 X111.403 Y51.997 E3.9824
G1 X111.498 Y52.394 E4.01417
G1 X111.578 Y52.789 E4.04554
G1 X111.656 Y53.28 E4.08423
G1 X111.699 Y53.647 E4.11299
G1 X111.736 Y54.132 E4.15085
G1 X111.751 Y54.557 E4.18395
G1 X111.755 Y54.768 E4.20037
G1 X111.755 Y120.314 E9.30173
G1 X111.75 Y120.569 E9.32158
G1 X111.736 Y120.897 E9.34713
G1 X111.698 Y121.355 E9.3829
G1 X111.652 Y121.738 E9.41292
G1 X111.586 Y122.159 E9.44609
G1 X111.512 Y122.542 E9.47645
G1 X111.403 Y123.007 E9.51362
G1 X111.302 Y123.371 E9.54302
G1 X111.151 Y123.841 E9.58144
G1 X111.009 Y124.226 E9.61338
G1 X110.838 Y124.64 E9.64824
G1 X110.681 Y124.984 E9.67767
G1 X110.451 Y125.436 E9.71714
G1 X110.264 Y125.768 E9.7468
G1 X110.041 Y126.133 E9.78009
G1 X109.816 Y126.473 E9.81182
G1 X109.517 Y126.886 E9.8515
G1 X109.281 Y127.184 E9.88109
G1 X108.979 Y127.535 E9.91712
G1 X108.714 Y127.821 E9.94747
G1 X108.392 Y128.144 E9.98297
G1 X108.107 Y128.408 E10.0132
G1 X107.754 Y128.71 E10.04936
G1 X107.452 Y128.949 E10.07933
G1 X107.041 Y129.247 E10.11884
G1 X106.71 Y129.466 E10.14973
G1 X106.342 Y129.691 E10.1833
G1 X105.999 Y129.884 E10.21393
G1 X105.561 Y130.107 E10.25219
G1 X105.221 Y130.263 E10.2813
G1 X104.794 Y130.439 E10.31725
G1 X104.414 Y130.579 E10.34876
G1 X103.951 Y130.729 E10.38664
G1 X103.599 Y130.827 E10.41508
G1 X103.173 Y130.929 E10.44917
G1 X102.77 Y131.01 E10.48116
G1 X102.27 Y131.088 E10.52055
G1 X101.893 Y131.131 E10.55008
G1 X101.422 Y131.166 E10.58684
G1 X100.989 Y131.181 E10.62056
G1 X100.782 Y131.185 E10.63667
G1 X74.112 Y131.185 E12.71236
G1 X73.83 Y131.178 E12.73432
G1 X73.491 Y131.162 E12.76073
G1 X73.067 Y131.127 E12.79384
G1 X72.697 Y131.083 E12.82284
G1 X72.271 Y131.017 E12.85639
G1 X71.887 Y130.943 E12.88683
G1 X71.399 Y130.827 E12.92587
G1 X71.033 Y130.724 E12.95546
G1 X70.599 Y130.584 E12.99095
G1 X70.219 Y130.445 E13.02244
G1 X69.776 Y130.263 E13.05972
G1 X69.43 Y130.104 E13.08935
G1 X68.991 Y129.879 E13.12775
G1 X68.661 Y129.693 E13.15723
G1 X68.293 Y129.469 E13.19076
G1 X67.949 Y129.241 E13.22288
G1 X67.544 Y128.947 E13.26183
G1 X67.248 Y128.713 E13.2912
G1 X66.885 Y128.401 E13.32845
G1 X66.6 Y128.136 E13.35874
G1 X66.284 Y127.82 E13.39352
G1 X66.021 Y127.536 E13.42364
G1 X65.717 Y127.18 E13.46008
G1 X65.476 Y126.875 E13.49033
G1 X65.185 Y126.475 E13.52883
G1 X64.968 Y126.148 E13.55937
G1 X64.737 Y125.769 E13.59392
G1 X64.541 Y125.42 E13.62507
G1 X64.315 Y124.976 E13.66385
G1 X64.162 Y124.641 E13.69251
G1 X63.991 Y124.226 E13.72744
G1 X63.849 Y123.841 E13.75938
G1 X63.693 Y123.355 E13.79911
G1 X63.595 Y122.998 E13.82792
G1 X63.499 Y122.591 E13.86046
G1 X63.42 Y122.197 E13.89174
G1 X63.343 Y121.709 E13.93019
G1 X63.3 Y121.338 E13.95926
G1 X63.265 Y120.888 E13.99439
G1 X63.25 Y120.511 E14.02375
G1 X63.245 Y120.273 E14.04228
G1 X63.245 Y54.729 E19.14348
G1 X63.251 Y54.457 E19.16466
G1 X63.27 Y54.039 E19.19722
G1 X63.312 Y53.551 E19.23534
G1 X63.364 Y53.145 E19.2672
G1 X63.448 Y52.655 E19.30589
G1 X63.532 Y52.262 E19.33717
G1 X63.649 Y51.804 E19.37396
G1 X63.767 Y51.408 E19.40612
G1 X63.937 Y50.917 E19.44656
G1 X64.09 Y50.53 E19.47895
G1 X64.284 Y50.091 E19.5163
G1 X64.459 Y49.735 E19.54718
G1 X64.693 Y49.305 E19.58528
G1 X64.901 Y48.957 E19.61683
G1 X65.19 Y48.518 E19.65774
G1 X65.195 Y48.512 E19.65834
G0 F810 X65.434 Y48.181
G0 F6000 X65.856 Y48.486
G1 F900 X66.105 Y48.168 E19.68978
G1 X66.353 Y47.874 E19.71971
G1 X66.672 Y47.527 E19.7564
G1 X66.979 Y47.221 E19.79013
G1 X67.336 Y46.895 E19.82776
G1 X67.649 Y46.634 E19.85948
G1 X67.963 Y46.391 E19.89038
G1 X68.285 Y46.16 E19.92122
G1 X68.693 Y45.894 E19.95913
G1 X69.059 Y45.678 E19.9922
G1 X69.474 Y45.456 E20.02883
G1 X69.837 Y45.282 E20.06016
G1 X70.206 Y45.122 E20.09147
G1 X70.584 Y44.974 E20.12306
G1 X71.03 Y44.821 E20.15976
G1 X71.413 Y44.708 E20.19084
G1 X71.862 Y44.596 E20.22685
G1 X72.277 Y44.511 E20.25982
G1 X72.699 Y44.442 E20.2931
G1 X73.085 Y44.394 E20.32337
G1 X73.532 Y44.357 E20.35828
G1 X73.941 Y44.34 E20.39014
G1 X74.168 Y44.335 E20.40781
G1 X100.883 Y44.335 E22.48701
G1 X101.137 Y44.341 E22.50678
G1 X101.481 Y44.357 E22.53358
G1 X101.872 Y44.389 E22.56412
G1 X102.242 Y44.433 E22.59312
G1 X102.63 Y44.494 E22.62369
G1 X103.014 Y44.568 E22.65412
G1 X103.46 Y44.673 E22.68978
G1 X103.826 Y44.776 E22.71937
G1 X104.232 Y44.908 E22.7526
G1 X104.599 Y45.043 E22.78303
G1 X104.972 Y45.196 E22.81441
G1 X105.333 Y45.36 E22.84527
G1 X105.759 Y45.576 E22.88244
G1 X106.092 Y45.764 E22.91221
G1 X106.437 Y45.976 E22.94372
G1 X106.776 Y46.202 E22.97543
G1 X107.133 Y46.462 E23.0098
G1 X107.429 Y46.696 E23.03917
G1 X107.756 Y46.976 E23.07268
G1 X108.032 Y47.232 E23.10197
G1 X108.323 Y47.523 E23.134
G1 X108.603 Y47.825 E23.16606
G1 X108.881 Y48.149 E23.19928
G1 X109.112 Y48.441 E23.22826
G1 X109.384 Y48.816 E23.26431
G1 X109.603 Y49.147 E23.2952
G1 X109.806 Y49.479 E23.32549
G1 X110.001 Y49.825 E23.3564
G1 X110.208 Y50.232 E23.39194
G1 X110.361 Y50.566 E23.42053
G1 X110.52 Y50.952 E23.45302
G1 X110.663 Y51.34 E23.48521
G1 X110.805 Y51.781 E23.52126
G1 X110.902 Y52.134 E23.54976
G1 X110.988 Y52.497 E23.57879
G1 X111.068 Y52.892 E23.61016
G1 X111.14 Y53.341 E23.64555
G1 X111.183 Y53.708 E23.67431
G1 X111.217 Y54.15 E23.70881
G1 X111.232 Y54.575 E23.74191
G1 X111.235 Y54.768 E23.75693
G1 X111.235 Y120.314 E28.85829
G1 X111.23 Y120.547 E28.87643
G1 X111.216 Y120.875 E28.90198
G1 X111.182 Y121.293 E28.93462
G1 X111.136 Y121.676 E28.96464
G1 X111.076 Y122.061 E28.99497
G1 X111.002 Y122.444 E29.02533
G1 X110.902 Y122.868 E29.05923
G1 X110.801 Y123.232 E29.08863
G1 X110.663 Y123.661 E29.1237
G1 X110.521 Y124.046 E29.15564
G1 X110.365 Y124.424 E29.18747
G1 X110.208 Y124.768 E29.2169
G1 X109.998 Y125.181 E29.25296
G1 X109.811 Y125.513 E29.28261
G1 X109.607 Y125.846 E29.31301
G1 X109.382 Y126.186 E29.34474
G1 X109.109 Y126.563 E29.38097
G1 X108.873 Y126.861 E29.41055
G1 X108.598 Y127.182 E29.44345
G1 X108.333 Y127.468 E29.47379
G1 X108.038 Y127.763 E29.50626
G1 X107.753 Y128.027 E29.5365
G1 X107.431 Y128.302 E29.56945
G1 X107.129 Y128.541 E29.59943
G1 X106.754 Y128.814 E29.63553
G1 X106.423 Y129.033 E29.66642
G1 X106.087 Y129.237 E29.69701
G1 X105.744 Y129.43 E29.72764
G1 X105.344 Y129.635 E29.76262
G1 X105.004 Y129.791 E29.79174
G1 X104.615 Y129.951 E29.82448
G1 X104.235 Y130.091 E29.85599
G1 X103.811 Y130.228 E29.89067
G1 X103.459 Y130.326 E29.91911
G1 X103.071 Y130.419 E29.95016
G1 X102.668 Y130.5 E29.98216
G1 X102.211 Y130.572 E30.01816
G1 X101.834 Y130.615 E30.04769
G1 X101.404 Y130.647 E30.08125
G1 X100.971 Y130.662 E30.11497
G1 X100.782 Y130.665 E30.12968
G1 X74.112 Y130.665 E32.20538
G1 X73.855 Y130.659 E32.22538
G1 X73.516 Y130.643 E32.2518
G1 X73.128 Y130.611 E32.2821
G1 X72.758 Y130.567 E32.3111
G1 X72.37 Y130.506 E32.34166
G1 X71.986 Y130.432 E32.3721
G1 X71.54 Y130.327 E32.40776
G1 X71.174 Y130.224 E32.43735
G1 X70.777 Y130.096 E32.46982
G1 X70.397 Y129.957 E32.50131
G1 X69.993 Y129.79 E32.53533
G1 X69.647 Y129.631 E32.56497
G1 X69.246 Y129.426 E32.60002
G1 X68.916 Y129.24 E32.6295
G1 X68.581 Y129.035 E32.66007
G1 X68.237 Y128.807 E32.69219
G1 X67.867 Y128.539 E32.72775
G1 X67.571 Y128.305 E32.75711
G1 X67.239 Y128.021 E32.79111
G1 X66.954 Y127.756 E32.8214
G1 X66.666 Y127.467 E32.85316
G1 X66.403 Y127.183 E32.88328
G1 X66.125 Y126.858 E32.91657
G1 X65.884 Y126.553 E32.94682
G1 X65.619 Y126.187 E32.98199
G1 X65.402 Y125.86 E33.01253
G1 X65.19 Y125.515 E33.04405
G1 X64.994 Y125.166 E33.0752
G1 X64.788 Y124.76 E33.11064
G1 X64.635 Y124.425 E33.1393
G1 X64.479 Y124.046 E33.1712
G1 X64.337 Y123.661 E33.20313
G1 X64.195 Y123.217 E33.23941
G1 X64.097 Y122.86 E33.26823
G1 X64.009 Y122.488 E33.29798
G1 X63.93 Y122.094 E33.32925
G1 X63.859 Y121.65 E33.36425
G1 X63.816 Y121.279 E33.39332
G1 X63.784 Y120.867 E33.42548
G1 X63.769 Y120.49 E33.45484
G1 X63.765 Y120.273 E33.47173
G1 X63.765 Y54.729 E38.57294
G1 X63.771 Y54.481 E38.59225
G1 X63.79 Y54.063 E38.62481
G1 X63.828 Y53.617 E38.65965
G1 X63.88 Y53.211 E38.69151
G1 X63.957 Y52.764 E38.72681
G1 X64.041 Y52.371 E38.75809
G1 X64.147 Y51.953 E38.79165
G1 X64.265 Y51.557 E38.82381
G1 X64.42 Y51.109 E38.8607
G1 X64.573 Y50.722 E38.89309
G1 X64.751 Y50.32 E38.92731
G1 X64.926 Y49.964 E38.95818
G1 X65.139 Y49.572 E38.9929
G1 X65.347 Y49.224 E39.02446
G1 X65.612 Y48.823 E39.06187
G1 X65.617 Y48.817 E39.06247
G0 F810 X65.856 Y48.486
G0 F6000 X66.277 Y48.791
G1 F900 X66.502 Y48.503 E39.09092
G1 X66.75 Y48.209 E39.12085
G1 X67.039 Y47.895 E39.15407
G1 X67.346 Y47.589 E39.1878
G1 X67.669 Y47.294 E39.22185
G1 X67.982 Y47.033 E39.25357
G1 X68.266 Y46.813 E39.28152
G1 X68.588 Y46.582 E39.31237
G1 X68.957 Y46.342 E39.34663
G1 X69.323 Y46.126 E39.3797
G1 X69.699 Y45.925 E39.41288
G1 X70.062 Y45.751 E39.44421
G1 X70.396 Y45.606 E39.47255
G1 X70.774 Y45.458 E39.50415
G1 X71.177 Y45.32 E39.5373
G1 X71.56 Y45.207 E39.56838
G1 X71.967 Y45.105 E39.60103
G1 X72.382 Y45.02 E39.634
G1 X72.763 Y44.958 E39.66405
G1 X73.149 Y44.91 E39.69432
G1 X73.554 Y44.876 E39.72595
G1 X73.963 Y44.859 E39.75781
G1 X74.168 Y44.855 E39.77377
G1 X100.883 Y44.855 E41.85296
G1 X101.113 Y44.86 E41.87087
G1 X101.457 Y44.876 E41.89767
G1 X101.81 Y44.906 E41.92524
G1 X102.18 Y44.95 E41.95424
G1 X102.532 Y45.004 E41.98196
G1 X102.916 Y45.078 E42.01239
G1 X103.319 Y45.174 E42.04464
G1 X103.685 Y45.277 E42.07423
G1 X104.052 Y45.396 E42.10426
G1 X104.419 Y45.531 E42.13469
G1 X104.757 Y45.669 E42.1631
G1 X105.118 Y45.833 E42.19396
G1 X105.504 Y46.029 E42.22766
G1 X105.837 Y46.217 E42.25742
G1 X106.148 Y46.409 E42.28586
G1 X106.487 Y46.635 E42.31757
G1 X106.811 Y46.87 E42.34873
G1 X107.107 Y47.104 E42.37809
G1 X107.402 Y47.357 E42.40834
G1 X107.678 Y47.613 E42.43764
G1 X107.942 Y47.876 E42.46664
G1 X108.222 Y48.178 E42.49869
G1 X108.473 Y48.472 E42.52878
G1 X108.704 Y48.764 E42.55776
G1 X108.95 Y49.103 E42.59035
G1 X109.169 Y49.434 E42.62124
G1 X109.353 Y49.735 E42.6487
G1 X109.548 Y50.081 E42.67961
G1 X109.735 Y50.449 E42.71174
G1 X109.888 Y50.783 E42.74033
G1 X110.032 Y51.132 E42.76971
G1 X110.175 Y51.52 E42.8019
G1 X110.303 Y51.919 E42.83451
G1 X110.4 Y52.272 E42.863
G1 X110.479 Y52.6 E42.88926
G1 X110.559 Y52.995 E42.92063
G1 X110.623 Y53.401 E42.95261
G1 X110.666 Y53.768 E42.98137
G1 X110.697 Y54.169 E43.01268
G1 X110.712 Y54.594 E43.04577
G1 X110.715 Y54.768 E43.05932
G1 X110.715 Y120.314 E48.16068
G1 X110.711 Y120.525 E48.1771
G1 X110.697 Y120.853 E48.20265
G1 X110.666 Y121.231 E48.23217
G1 X110.62 Y121.614 E48.26219
G1 X110.565 Y121.962 E48.28962
G1 X110.491 Y122.345 E48.31998
G1 X110.401 Y122.729 E48.35067
G1 X110.3 Y123.093 E48.38007
G1 X110.175 Y123.481 E48.4118
G1 X110.033 Y123.866 E48.44373
G1 X109.892 Y124.208 E48.47253
G1 X109.735 Y124.552 E48.50195
G1 X109.545 Y124.925 E48.53453
G1 X109.358 Y125.257 E48.56419
G1 X109.174 Y125.559 E48.59171
G1 X108.949 Y125.899 E48.62344
G1 X108.702 Y126.24 E48.65622
G1 X108.466 Y126.538 E48.6858
G1 X108.217 Y126.829 E48.71561
G1 X107.952 Y127.115 E48.74595
G1 X107.685 Y127.381 E48.77529
G1 X107.4 Y127.645 E48.80552
G1 X107.109 Y127.895 E48.83538
G1 X106.807 Y128.134 E48.86535
G1 X106.467 Y128.38 E48.89802
G1 X106.136 Y128.599 E48.92891
G1 X105.832 Y128.784 E48.9566
G1 X105.489 Y128.977 E48.98723
G1 X105.127 Y129.162 E49.01887
G1 X104.787 Y129.318 E49.04799
G1 X104.435 Y129.463 E49.07762
G1 X104.055 Y129.603 E49.10913
G1 X103.672 Y129.727 E49.14047
G1 X103.32 Y129.825 E49.1689
G1 X102.968 Y129.909 E49.19707
G1 X102.565 Y129.99 E49.22906
G1 X102.152 Y130.055 E49.2616
G1 X101.775 Y130.098 E49.29113
G1 X101.386 Y130.127 E49.32149
G1 X100.953 Y130.142 E49.35521
G1 X100.782 Y130.145 E49.36852
G1 X74.112 Y130.145 E51.44421
G1 X73.879 Y130.14 E51.46235
G1 X73.54 Y130.124 E51.48877
G1 X73.19 Y130.094 E51.51611
G1 X72.82 Y130.05 E51.5451
G1 X72.468 Y129.996 E51.57282
G1 X72.084 Y129.922 E51.60326
G1 X71.681 Y129.826 E51.6355
G1 X71.315 Y129.723 E51.66509
G1 X70.956 Y129.607 E51.69445
G1 X70.576 Y129.468 E51.72595
G1 X70.21 Y129.318 E51.75673
G1 X69.864 Y129.159 E51.78637
G1 X69.501 Y128.973 E51.81811
G1 X69.171 Y128.787 E51.84759
G1 X68.868 Y128.602 E51.87522
G1 X68.524 Y128.374 E51.90734
G1 X68.189 Y128.131 E51.93955
G1 X67.893 Y127.897 E51.96892
G1 X67.593 Y127.64 E51.99966
G1 X67.308 Y127.375 E52.02995
G1 X67.047 Y127.114 E52.05868
G1 X66.784 Y126.83 E52.0888
G1 X66.533 Y126.536 E52.11889
G1 X66.292 Y126.231 E52.14915
G1 X66.052 Y125.899 E52.18103
G1 X65.835 Y125.572 E52.21157
G1 X65.644 Y125.26 E52.24004
G1 X65.448 Y124.911 E52.2712
G1 X65.261 Y124.544 E52.30325
G1 X65.108 Y124.209 E52.33192
G1 X64.967 Y123.866 E52.36078
G1 X64.825 Y123.481 E52.39272
G1 X64.696 Y123.08 E52.4255
G1 X64.598 Y122.723 E52.45431
G1 X64.518 Y122.386 E52.48127
G1 X64.439 Y121.992 E52.51255
G1 X64.376 Y121.59 E52.54422
G1 X64.333 Y121.219 E52.57328
G1 X64.304 Y120.846 E52.6024
G1 X64.289 Y120.469 E52.63177
G1 X64.285 Y120.273 E52.64702
G1 X64.285 Y54.729 E57.74823
G1 X64.29 Y54.505 E57.76567
G1 X64.309 Y54.087 E57.79823
G1 X64.344 Y53.683 E57.82979
G1 X64.396 Y53.277 E57.86165
G1 X64.465 Y52.872 E57.89362
G1 X64.549 Y52.479 E57.9249
G1 X64.646 Y52.101 E57.95527
G1 X64.764 Y51.705 E57.98743
G1 X64.904 Y51.3 E58.02078
G1 X65.057 Y50.913 E58.05317
G1 X65.218 Y50.55 E58.08408
G1 X65.393 Y50.194 E58.11495
G1 X65.586 Y49.839 E58.1464
G1 X65.794 Y49.491 E58.17795
G1 X66.033 Y49.128 E58.21178
G1 X66.038 Y49.122 E58.21239
G0 F810 X66.277 Y48.791
G0 F6000 X66.698 Y49.096
G1 F900 X66.899 Y48.838 E58.23784
G1 X67.147 Y48.544 E58.26778
G1 X67.406 Y48.263 E58.29752
G1 X67.713 Y47.957 E58.33126
G1 X68.002 Y47.693 E58.36172
G1 X68.315 Y47.432 E58.39344
G1 X68.57 Y47.236 E58.41847
G1 X68.892 Y47.005 E58.44931
G1 X69.222 Y46.789 E58.48001
G1 X69.588 Y46.573 E58.51308
G1 X69.923 Y46.394 E58.54265
G1 X70.286 Y46.22 E58.57398
G1 X70.586 Y46.09 E58.59942
G1 X70.964 Y45.942 E58.63102
G1 X71.324 Y45.819 E58.66062
