;FLAVOR:Marlin
;TIME:1041
;Filament used: 0.458095m
;Layer height: 0.2
;MINX:66.695
;MINY:76.511
;MINZ:0.3
;MAXX:108.305
;MAXY:97.822
;MAXZ:3.5
;Generated with Creality Slicer 4.8.2-196
M140 S50
M105
M190 S50
M104 S195
M105
M109 S195
M82 ;absolute extrusion mode
G28 ;Home

G92 E0 ;Reset Extruder
G1 Z2.0 F3000 ;Move Z Axis up
G1 X10.1 Y20 Z0.28 F5000.0 ;Move to start position
G1 X10.1 Y170.0 Z0.28 F1500.0 E12 ;Draw the first line
G1 X10.4 Y170.0 Z0.28 F5000.0 ;Move to side a little
G1 X10.4 Y20 Z0.28 F1500.0 E25 ;Draw the second line
G92 E0 ;Reset Extruder
G1 Z2.0 F3000 ;Move Z Axis up

G92 E0
G92 E0
G1 F1500 E-0.8
;LAYER_COUNT:17
;LAYER:0
M107
G0 F6000 X69.115 Y77.805 Z0.3
;TYPE:SKIRT
G1 F1500 E0
G1 F900 X69.681 Y77.408 E0.05381
G1 X70.289 Y77.078 E0.10765
G1 X70.931 Y76.822 E0.16144
G1 X71.598 Y76.641 E0.21523
G1 X72.282 Y76.538 E0.26906
G1 X72.827 Y76.513 E0.31152
G1 X74.703 Y76.511 E0.45753
G1 X75.394 Y76.549 E0.51139
G1 X76.075 Y76.665 E0.56516
G1 X76.738 Y76.86 E0.61894
G1 X77.151 Y77.037 E0.65391
G1 X97.842 Y77.037 E2.26427
G1 X97.969 Y76.975 E2.27527
G1 X98.621 Y76.745 E2.32908
G1 X99.295 Y76.592 E2.38287
G1 X100.311 Y76.511 E2.46219
G1 X100.859 Y76.514 E2.50484
G1 X102.173 Y76.514 E2.60711
G1 X102.863 Y76.554 E2.6609
G1 X103.544 Y76.673 E2.71471
G1 X104.207 Y76.871 E2.76856
G1 X104.842 Y77.143 E2.82232
G1 X105.442 Y77.487 E2.87615
G1 X105.998 Y77.897 E2.92992
G1 X106.401 Y78.266 E2.97244
G1 X106.553 Y78.418 E2.98917
G1 X107.013 Y78.934 E3.04297
G1 X107.41 Y79.5 E3.09678
G1 X107.74 Y80.108 E3.15062
G1 X107.996 Y80.75 E3.20441
G1 X108.177 Y81.417 E3.2582
G1 X108.28 Y82.101 E3.31204
G1 X108.305 Y82.646 E3.3545
G1 X108.305 Y91.688 E4.05823
G1 X108.265 Y92.378 E4.11202
G1 X108.146 Y93.059 E4.16582
G1 X107.948 Y93.722 E4.21968
G1 X107.676 Y94.357 E4.27344
G1 X107.332 Y94.957 E4.32727
G1 X106.922 Y95.513 E4.38103
G1 X106.553 Y95.916 E4.42356
G1 X106.401 Y96.068 E4.44029
G1 X105.885 Y96.528 E4.49409
G1 X105.319 Y96.925 E4.5479
G1 X104.711 Y97.255 E4.60174
G1 X104.069 Y97.511 E4.65553
G1 X103.402 Y97.692 E4.70932
G1 X102.718 Y97.795 E4.76315
G1 X102.173 Y97.82 E4.80562
G1 X100.297 Y97.822 E4.95162
G1 X99.606 Y97.785 E5.00548
G1 X98.925 Y97.668 E5.05926
G1 X98.262 Y97.473 E5.11304
G1 X97.852 Y97.297 E5.14777
G1 X77.116 Y97.297 E6.76163
G1 X76.897 Y97.392 E6.7802
G1 X76.498 Y97.522 E6.81286
G1 X76.269 Y97.588 E6.83141
G1 X75.595 Y97.741 E6.8852
G1 X74.603 Y97.822 E6.96267
G1 X72.817 Y97.819 E7.10167
G1 X72.127 Y97.778 E7.15547
G1 X71.446 Y97.657 E7.2093
G1 X70.784 Y97.459 E7.26308
G1 X70.149 Y97.186 E7.31687
G1 X69.549 Y96.841 E7.37074
G1 X68.994 Y96.429 E7.42453
G1 X68.599 Y96.067 E7.46623
G1 X68.447 Y95.915 E7.48296
G1 X67.987 Y95.399 E7.53676
G1 X67.59 Y94.833 E7.59057
G1 X67.26 Y94.225 E7.64441
G1 X67.004 Y93.583 E7.6982
G1 X66.823 Y92.916 E7.75199
G1 X66.72 Y92.232 E7.80583
G1 X66.695 Y91.687 E7.84829
G1 X66.695 Y82.645 E8.55202
G1 X66.735 Y81.955 E8.60581
G1 X66.854 Y81.274 E8.65961
G1 X67.052 Y80.611 E8.71346
G1 X67.324 Y79.976 E8.76723
G1 X67.668 Y79.376 E8.82106
G1 X68.078 Y78.82 E8.87482
G1 X68.447 Y78.417 E8.91735
G1 X68.599 Y78.265 E8.93408
G1 X68.81 Y78.077 E8.95607
G0 F810 X69.115 Y77.805
G0 F6000 X69.461 Y78.194
G1 F900 X70.005 Y77.819 E9.0075
G1 X70.59 Y77.512 E9.05892
G1 X71.208 Y77.279 E9.11032
G1 X71.849 Y77.121 E9.1617
G1 X72.827 Y77.033 E9.23812
G1 X74.705 Y77.031 E9.38429
G1 X75.365 Y77.069 E9.43574
G1 X76.015 Y77.186 E9.48714
G1 X76.646 Y77.38 E9.53852
G1 X77.049 Y77.557 E9.57278
G1 X97.963 Y77.557 E11.20049
G1 X98.251 Y77.421 E11.22527
G1 X98.878 Y77.214 E11.27666
G1 X99.526 Y77.083 E11.32812
G1 X100.308 Y77.031 E11.38911
G1 X100.856 Y77.034 E11.43176
G1 X102.173 Y77.034 E11.53426
G1 X102.832 Y77.074 E11.58565
G1 X103.482 Y77.193 E11.63708
G1 X104.113 Y77.39 E11.68852
G1 X104.715 Y77.662 E11.73994
G1 X105.28 Y78.004 E11.79134
G1 X106.034 Y78.633 E11.86776
G1 X106.186 Y78.785 E11.88449
G1 X106.624 Y79.28 E11.93593
G1 X106.999 Y79.824 E11.98736
G1 X107.306 Y80.409 E12.03877
G1 X107.539 Y81.027 E12.09018
G1 X107.697 Y81.668 E12.14156
G1 X107.785 Y82.646 E12.21798
G1 X107.785 Y91.688 E12.92171
G1 X107.745 Y92.347 E12.97309
G1 X107.626 Y92.997 E13.02452
G1 X107.429 Y93.628 E13.07597
G1 X107.157 Y94.23 E13.12738
G1 X106.815 Y94.795 E13.17879
G1 X106.186 Y95.549 E13.25521
G1 X106.034 Y95.701 E13.27194
G1 X105.539 Y96.139 E13.32338
G1 X104.995 Y96.514 E13.3748
G1 X104.41 Y96.821 E13.42622
G1 X103.792 Y97.054 E13.47762
G1 X103.151 Y97.212 E13.52901
G1 X102.173 Y97.3 E13.60543
G1 X100.845 Y97.3 E13.70879
G1 X100.295 Y97.302 E13.75159
G1 X99.635 Y97.264 E13.80304
G1 X98.985 Y97.147 E13.85445
G1 X98.354 Y96.953 E13.90582
G1 X97.953 Y96.777 E13.93991
G1 X77 Y96.777 E15.57065
G1 X76.354 Y97.022 E15.62442
G1 X76.125 Y97.088 E15.64297
G1 X75.48 Y97.233 E15.69442
G1 X74.604 Y97.302 E15.76281
G1 X72.818 Y97.299 E15.90182
G1 X72.159 Y97.258 E15.9532
G1 X71.509 Y97.138 E16.00465
G1 X70.879 Y96.94 E16.05604
G1 X70.277 Y96.667 E16.10749
G1 X69.713 Y96.324 E16.15887
G1 X68.966 Y95.7 E16.23462
G1 X68.814 Y95.548 E16.25135
G1 X68.376 Y95.053 E16.30279
G1 X68.001 Y94.509 E16.35421
G1 X67.694 Y93.924 E16.40563
G1 X67.461 Y93.306 E16.45704
G1 X67.303 Y92.665 E16.50842
G1 X67.215 Y91.687 E16.58484
G1 X67.215 Y82.645 E17.28857
G1 X67.255 Y81.986 E17.33995
G1 X67.374 Y81.336 E17.39138
G1 X67.571 Y80.705 E17.44283
G1 X67.843 Y80.103 E17.49424
G1 X68.185 Y79.538 E17.54564
G1 X68.814 Y78.784 E17.62207
G1 X68.966 Y78.632 E17.6388
G1 X69.155 Y78.465 E17.65842
G0 F810 X69.461 Y78.194
G0 F6000 X69.806 Y78.585
G1 F900 X70.326 Y78.233 E17.7073
G1 X70.887 Y77.95 E17.7562
G1 X71.479 Y77.74 E17.80509
G1 X72.094 Y77.608 E17.85404
G1 X72.827 Y77.553 E17.91125
G1 X74.707 Y77.551 E18.05757
G1 X75.334 Y77.589 E18.10646
G1 X75.952 Y77.706 E18.15541
G1 X76.549 Y77.9 E18.20426
G1 X76.941 Y78.077 E18.23774
G1 X98.075 Y78.077 E19.88257
G1 X98.53 Y77.871 E19.92144
G1 X99.131 Y77.686 E19.97038
G1 X99.75 Y77.579 E20.01928
G1 X100.305 Y77.551 E20.06253
G1 X100.853 Y77.554 E20.10518
G1 X102.173 Y77.554 E20.20791
G1 X102.8 Y77.594 E20.25681
G1 X103.417 Y77.713 E20.30571
G1 X104.014 Y77.91 E20.35464
G1 X104.581 Y78.181 E20.40355
G1 X105.109 Y78.521 E20.45243
G1 X105.666 Y79.001 E20.50965
G1 X105.818 Y79.153 E20.52638
G1 X106.233 Y79.625 E20.5753
G1 X106.585 Y80.145 E20.62417
G1 X106.868 Y80.706 E20.67307
G1 X107.078 Y81.298 E20.72196
G1 X107.21 Y81.913 E20.77092
G1 X107.265 Y82.646 E20.82812
G1 X107.265 Y91.688 E21.53185
G1 X107.225 Y92.315 E21.58075
G1 X107.106 Y92.932 E21.62966
G1 X106.909 Y93.529 E21.67858
G1 X106.638 Y94.096 E21.72749
G1 X106.298 Y94.624 E21.77637
G1 X105.818 Y95.181 E21.8336
G1 X105.666 Y95.333 E21.85033
G1 X105.194 Y95.748 E21.89924
G1 X104.674 Y96.1 E21.94811
G1 X104.113 Y96.383 E21.99702
G1 X103.521 Y96.593 E22.0459
G1 X102.906 Y96.725 E22.09486
G1 X102.173 Y96.78 E22.15207
G1 X100.843 Y96.78 E22.25558
G1 X100.293 Y96.782 E22.29839
G1 X99.666 Y96.744 E22.34727
G1 X99.048 Y96.627 E22.39623
G1 X98.451 Y96.433 E22.44508
G1 X98.061 Y96.257 E22.47838
G1 X76.912 Y96.257 E24.12438
G1 X76.857 Y96.286 E24.12922
G1 X76.21 Y96.523 E24.18285
G1 X75.981 Y96.589 E24.2014
G1 X75.367 Y96.724 E24.25032
G1 X74.605 Y96.782 E24.3098
G1 X72.819 Y96.779 E24.4488
G1 X72.192 Y96.738 E24.49771
G1 X71.575 Y96.618 E24.54663
G1 X70.979 Y96.42 E24.59551
G1 X70.412 Y96.148 E24.64445
G1 X69.884 Y95.807 E24.69337
G1 X69.334 Y95.332 E24.74993
G1 X69.182 Y95.18 E24.76666
G1 X68.767 Y94.708 E24.81557
G1 X68.415 Y94.188 E24.86444
G1 X68.132 Y93.627 E24.91335
G1 X67.922 Y93.035 E24.96224
G1 X67.79 Y92.42 E25.01119
G1 X67.735 Y91.687 E25.0684
G1 X67.735 Y82.645 E25.77213
G1 X67.775 Y82.018 E25.82102
G1 X67.894 Y81.401 E25.86993
G1 X68.091 Y80.804 E25.91886
G1 X68.362 Y80.237 E25.96777
G1 X68.702 Y79.709 E26.01664
G1 X69.182 Y79.152 E26.07387
G1 X69.334 Y79 E26.0906
G1 X69.499 Y78.855 E26.1077
G0 F810 X69.806 Y78.585
G0 F6000 X70.149 Y78.977
G1 F900 X70.645 Y78.649 E26.15398
G1 X71.18 Y78.391 E26.2002
G1 X71.746 Y78.207 E26.24652
G1 X72.33 Y78.101 E26.29272
G1 X72.827 Y78.073 E26.33146
G1 X74.158 Y78.073 E26.43505
G1 X74.709 Y78.071 E26.47793
G1 X75.302 Y78.109 E26.52418
G1 X75.885 Y78.226 E26.57046
G1 X76.716 Y78.545 E26.63974
G1 X76.819 Y78.597 E26.64872
G1 X98.196 Y78.597 E28.31246
G1 X98.259 Y78.559 E28.31819
G1 X98.805 Y78.324 E28.36445
G1 X99.377 Y78.164 E28.41068
G1 X99.966 Y78.082 E28.45696
G1 X100.302 Y78.071 E28.48313
G1 X100.85 Y78.074 E28.52578
G1 X102.173 Y78.074 E28.62874
G1 X102.766 Y78.114 E28.675
G1 X103.348 Y78.233 E28.72124
G1 X103.909 Y78.429 E28.76749
G1 X104.439 Y78.699 E28.81378
G1 X104.927 Y79.037 E28.85998
G1 X105.298 Y79.369 E28.89873
G1 X105.45 Y79.521 E28.91546
G1 X105.841 Y79.968 E28.96168
G1 X106.169 Y80.464 E29.00796
G1 X106.427 Y80.999 E29.05419
G1 X106.611 Y81.565 E29.10051
G1 X106.717 Y82.149 E29.1467
G1 X106.745 Y82.646 E29.18544
G1 X106.745 Y91.688 E29.88917
G1 X106.705 Y92.281 E29.93543
G1 X106.586 Y92.863 E29.98166
G1 X106.39 Y93.424 E30.02791
G1 X106.12 Y93.954 E30.0742
G1 X105.782 Y94.442 E30.12041
G1 X105.45 Y94.813 E30.15915
G1 X105.298 Y94.965 E30.17588
G1 X104.851 Y95.356 E30.2221
G1 X104.355 Y95.684 E30.26838
G1 X103.82 Y95.942 E30.31461
G1 X103.254 Y96.126 E30.36093
G1 X102.67 Y96.232 E30.40713
G1 X102.173 Y96.26 E30.44587
G1 X100.841 Y96.26 E30.54954
G1 X100.291 Y96.262 E30.59234
G1 X99.698 Y96.224 E30.63859
G1 X99.115 Y96.107 E30.68487
G1 X98.284 Y95.788 E30.75415
G1 X98.183 Y95.737 E30.76295
G1 X76.78 Y95.737 E32.42872
G1 X76.527 Y95.862 E32.45068
G1 X76.066 Y96.023 E32.48869
G1 X75.837 Y96.089 E32.50723
G1 X75.256 Y96.215 E32.5535
G1 X74.606 Y96.262 E32.60423
G1 X72.82 Y96.259 E32.74323
G1 X72.227 Y96.218 E32.78949
G1 X71.645 Y96.098 E32.83574
G1 X71.084 Y95.901 E32.88201
G1 X70.555 Y95.63 E32.92827
G1 X70.067 Y95.291 E32.97452
G1 X69.702 Y94.964 E33.01266
G1 X69.55 Y94.812 E33.02939
G1 X69.159 Y94.365 E33.07561
G1 X68.831 Y93.869 E33.12189
G1 X68.573 Y93.334 E33.16812
G1 X68.389 Y92.768 E33.21444
G1 X68.283 Y92.184 E33.26063
G1 X68.255 Y91.687 E33.29938
G1 X68.255 Y82.645 E34.0031
G1 X68.295 Y82.052 E34.04936
G1 X68.414 Y81.47 E34.09559
G1 X68.61 Y80.909 E34.14184
G1 X68.88 Y80.379 E34.18814
G1 X69.218 Y79.891 E34.23434
G1 X69.55 Y79.52 E34.27309
G1 X69.702 Y79.368 E34.28982
G1 X69.841 Y79.246 E34.30421
G0 F810 X70.149 Y78.977
G0 F6000 X70.491 Y79.37
G1 F900 X70.961 Y79.068 E34.34769
G1 X71.469 Y78.837 E34.39112
G1 X72.005 Y78.681 E34.43457
G1 X72.827 Y78.593 E34.49891
G1 X74.16 Y78.593 E34.60266
G1 X74.711 Y78.591 E34.64554
G1 X75.268 Y78.629 E34.68899
G1 X75.814 Y78.746 E34.73245
G1 X76.482 Y79.009 E34.78832
G1 X76.68 Y79.117 E34.80588
G1 X98.342 Y79.117 E36.4918
G1 X98.557 Y78.991 E36.5112
G1 X99.074 Y78.781 E36.55463
G1 X99.616 Y78.648 E36.59806
G1 X100.299 Y78.591 E36.6514
G1 X100.847 Y78.594 E36.69406
G1 X102.173 Y78.594 E36.79726
G1 X102.73 Y78.634 E36.84072
G1 X103.275 Y78.753 E36.88413
G1 X103.798 Y78.949 E36.9276
G1 X104.287 Y79.217 E36.971
G1 X104.931 Y79.736 E37.03538
G1 X105.083 Y79.888 E37.05211
G1 X105.448 Y80.31 E37.09553
G1 X105.75 Y80.78 E37.13901
G1 X105.981 Y81.288 E37.18244
G1 X106.137 Y81.824 E37.22589
G1 X106.225 Y82.646 E37.29023
G1 X106.225 Y91.688 E37.99396
G1 X106.185 Y92.245 E38.03742
G1 X106.066 Y92.79 E38.08084
G1 X105.87 Y93.313 E38.1243
G1 X105.602 Y93.802 E38.1677
G1 X105.083 Y94.446 E38.23208
G1 X104.931 Y94.598 E38.24881
G1 X104.509 Y94.963 E38.29223
G1 X104.039 Y95.265 E38.33571
G1 X103.531 Y95.496 E38.37914
G1 X102.995 Y95.652 E38.42259
G1 X102.173 Y95.74 E38.48693
G1 X100.839 Y95.74 E38.59076
G1 X100.289 Y95.742 E38.63356
G1 X99.732 Y95.704 E38.67701
G1 X99.186 Y95.587 E38.72047
G1 X98.518 Y95.324 E38.77635
G1 X98.322 Y95.217 E38.79373
G1 X76.671 Y95.217 E40.47879
G1 X76.202 Y95.431 E40.51892
G1 X75.922 Y95.523 E40.54185
G1 X75.693 Y95.589 E40.5604
G1 X75.147 Y95.705 E40.60385
G1 X74.606 Y95.742 E40.64605
G1 X72.82 Y95.739 E40.78505
G1 X72.264 Y95.698 E40.82844
G1 X71.719 Y95.578 E40.87187
G1 X71.196 Y95.382 E40.91534
G1 X70.707 Y95.112 E40.95882
G1 X70.069 Y94.597 E41.02263
G1 X69.917 Y94.445 E41.03936
G1 X69.552 Y94.023 E41.08279
G1 X69.25 Y93.553 E41.12627
G1 X69.019 Y93.045 E41.1697
G1 X68.863 Y92.509 E41.21315
G1 X68.775 Y91.687 E41.27749
G1 X68.775 Y82.645 E41.98121
G1 X68.815 Y82.088 E42.02468
G1 X68.934 Y81.543 E42.06809
G1 X69.13 Y81.02 E42.11156
G1 X69.398 Y80.531 E42.15496
G1 X69.917 Y79.887 E42.21933
G1 X70.069 Y79.735 E42.23606
G1 X70.182 Y79.638 E42.24765
G0 F810 X70.491 Y79.37
G0 F6000 X70.832 Y79.765
G1 F900 X71.273 Y79.491 E42.28806
G1 X71.752 Y79.289 E42.32852
G1 X72.256 Y79.162 E42.36897
G1 X72.827 Y79.113 E42.41358
G1 X74.162 Y79.113 E42.51748
G1 X74.713 Y79.111 E42.56036
G1 X75.231 Y79.149 E42.60078
G1 X75.737 Y79.266 E42.6412
G1 X76.247 Y79.473 E42.68404
G1 X76.537 Y79.637 E42.70997
G1 X98.478 Y79.637 E44.41761
G1 X98.851 Y79.427 E44.45093
G1 X99.338 Y79.244 E44.49142
G1 X99.847 Y79.139 E44.53187
G1 X100.297 Y79.111 E44.56696
G1 X100.845 Y79.114 E44.60961
G1 X102.173 Y79.114 E44.71296
G1 X102.691 Y79.154 E44.7534
G1 X103.197 Y79.273 E44.79385
G1 X103.679 Y79.468 E44.83432
G1 X104.125 Y79.734 E44.87474
G1 X104.563 Y80.104 E44.91936
G1 X104.715 Y80.256 E44.93609
G1 X105.053 Y80.651 E44.97655
G1 X105.327 Y81.092 E45.01696
G1 X105.529 Y81.571 E45.05742
G1 X105.656 Y82.075 E45.09787
G1 X105.705 Y82.646 E45.14248
G1 X105.705 Y91.688 E45.8462
G1 X105.665 Y92.206 E45.88664
G1 X105.546 Y92.712 E45.92709
G1 X105.351 Y93.194 E45.96756
G1 X105.085 Y93.64 E46.00798
G1 X104.715 Y94.078 E46.0526
G1 X104.563 Y94.23 E46.06933
G1 X104.168 Y94.568 E46.10979
G1 X103.727 Y94.842 E46.1502
G1 X103.248 Y95.044 E46.19066
G1 X102.744 Y95.171 E46.23111
G1 X102.173 Y95.22 E46.27572
G1 X100.837 Y95.22 E46.37969
G1 X100.287 Y95.222 E46.4225
G1 X99.769 Y95.184 E46.46292
G1 X99.263 Y95.067 E46.50334
G1 X98.753 Y94.86 E46.54618
G1 X98.465 Y94.697 E46.57194
G1 X76.524 Y94.697 E48.27958
G1 X76.366 Y94.793 E48.29397
G1 X75.778 Y95.024 E48.34313
G1 X75.549 Y95.09 E48.36168
G1 X75.04 Y95.195 E48.40213
G1 X74.607 Y95.222 E48.4359
G1 X72.821 Y95.219 E48.5749
G1 X72.303 Y95.178 E48.61534
G1 X71.798 Y95.058 E48.65574
G1 X71.316 Y94.863 E48.69621
G1 X70.871 Y94.595 E48.73664
G1 X70.437 Y94.229 E48.78082
G1 X70.285 Y94.077 E48.79755
G1 X69.947 Y93.682 E48.83801
G1 X69.673 Y93.241 E48.87842
G1 X69.471 Y92.762 E48.91888
G1 X69.344 Y92.258 E48.95933
G1 X69.295 Y91.687 E49.00393
G1 X69.295 Y82.645 E49.70766
G1 X69.335 Y82.127 E49.7481
G1 X69.454 Y81.621 E49.78855
G1 X69.649 Y81.139 E49.82902
G1 X69.915 Y80.693 E49.86944
G1 X70.285 Y80.255 E49.91406
G1 X70.437 Y80.103 E49.93079
G1 X70.521 Y80.031 E49.9394
G0 F810 X70.832 Y79.765
G0 F6000 X71.17 Y80.162
G1 F900 X71.581 Y79.919 E49.97656
G1 X72.027 Y79.747 E50.01376
G1 X72.495 Y79.652 E50.05093
G1 X72.827 Y79.633 E50.07681
G1 X74.164 Y79.633 E50.18087
G1 X74.715 Y79.631 E50.22375
G1 X75.191 Y79.669 E50.26092
G1 X75.654 Y79.786 E50.29809
G1 X76.013 Y79.938 E50.32843
G1 X76.124 Y79.994 E50.3381
G1 X76.389 Y80.157 E50.36232
G1 X98.637 Y80.157 E52.09385
G1 X98.72 Y80.093 E52.10201
G1 X99.141 Y79.867 E52.1392
G1 X99.594 Y79.714 E52.17641
G1 X100.294 Y79.631 E52.23127
G1 X100.842 Y79.634 E52.27392
G1 X102.173 Y79.634 E52.37751
G1 X102.649 Y79.674 E52.41469
G1 X103.112 Y79.793 E52.45189
G1 X103.549 Y79.987 E52.48911
G1 X103.947 Y80.251 E52.52628
G1 X104.195 Y80.472 E52.55213
G1 X104.347 Y80.624 E52.56886
G1 X104.656 Y80.989 E52.60608
G1 X104.899 Y81.4 E52.64324
G1 X105.071 Y81.846 E52.68044
G1 X105.166 Y82.314 E52.71761
G1 X105.185 Y82.646 E52.74349
G1 X105.185 Y91.688 E53.44722
G1 X105.145 Y92.164 E53.4844
G1 X105.026 Y92.627 E53.5216
G1 X104.832 Y93.064 E53.55882
G1 X104.568 Y93.462 E53.59599
G1 X104.347 Y93.71 E53.62184
G1 X104.195 Y93.862 E53.63857
G1 X103.83 Y94.171 E53.67579
G1 X103.419 Y94.414 E53.71295
G1 X102.973 Y94.586 E53.75015
G1 X102.505 Y94.681 E53.78732
G1 X102.173 Y94.7 E53.8132
G1 X100.835 Y94.7 E53.91734
G1 X100.285 Y94.702 E53.96014
G1 X99.809 Y94.664 E53.99731
G1 X99.346 Y94.547 E54.03447
G1 X98.987 Y94.395 E54.06482
G1 X98.876 Y94.339 E54.07449
G1 X98.612 Y94.177 E54.0986
G1 X76.387 Y94.177 E55.82834
